X:1
T:Children’s Voices, 12.12.88
T:Children’s Voices, 12.12.88
T:Edward John Hopkins, 1874
T:Public Domain Courtesy of the Cyber Hymnal™
C:Edward John Hopkins, 1874
Z:Public Domain
Z:Courtesy of the Cyber Hymnal™
%%score ( 1 2 ) ( 3 4 )
L:1/8
Q:1/4=113
M:6/8
K:G
V:1 treble 
V:2 treble 
V:3 bass 
V:4 bass 
V:1
 [DB] | [Ec]2 [DB] [CA]2 [DB] | [B,G-]3 [CG]2 [DF] | E2 F G2 A x | [CD-]3 [B,D]2 [B,G] | %5
 [Ec]2 [DB] [CA]2 [DB] | [B,G]2 [^CB] [DA]2 [DF] | G2 F [B,E]2 [^CF] | D3- D2 z | A3 [Dd]2 [CA] | %10
 [B,-B]3 [B,G]2 [B,G] | [Gc]2 [Ad] BA[DG] | [=Fd]2 [Ge] [Ec]3 | BA[^CG] [DA]3 | [B,G]3- [B,G]2 |] %15
V:2
 x | x6 | x6 | D3 C3- x | x6 | x6 | x6 | B,3- x3 | D3- D2 x | F2 E x3 | x6 | x3 D2 x | x6 | %13
 B,2 x4 | x5 |] %15
V:3
 G, | G,2 D, F,2 D, | G,3- [A,,G,]2 [B,,G,] | G,3- D, [E,G,]2 [D,F,] | G,3- [G,,G,]2 [G,,D,] | %5
 C,2 D, E,2 F, | [G,,G,]2 [E,G,] [F,A,]2 [B,,B,] | B,2 A, G,3 | [D,F,]3- [D,F,]2 z | %9
 C3 [F,A,]2 [D,F,] | G,3- [G,,G,]2 [G,,D,] | E,2 F, G,A,[D,B,] | G,3- [C,G,]3 | [E,G,-]3 G,2 F, | %14
 [G,,G,]3- [G,,G,]2 |] %15
V:4
 x | G,,6- | G,,2 G,, x3 | C,2 x5 | G,3 x3 | G,,6- | x6 | E,3- E,2 A,, | x6 | D,2 E, x3 | G,3 x3 | %11
 G,,3 G,,2 x | B,,2 G,, x3 | x3 D,3 | x5 |] %15

